OFDR/img/guarantees/file.svg

<svg width="37" height="55" viewBox="0 0 37 55" fill="none" xmlns="http://www.w3.org/2000/svg">
<g id="file">
<path id="Shape" fill-rule="evenodd" clip-rule="evenodd" d="M36.9983 10.7585L36.9979 10.7475L36.9972 10.7329L36.9966 10.7233C36.9931 10.6767 36.9884 10.631 36.979 10.5857V10.5852C36.9696 10.5399 36.9563 10.495 36.9413 10.4514C36.9374 10.4405 36.9335 10.4296 36.9292 10.4186C36.9134 10.3771 36.8954 10.3364 36.8748 10.297L36.8726 10.293L36.8714 10.2907C36.8491 10.2495 36.8233 10.2105 36.7955 10.1723C36.7906 10.1655 36.7855 10.1589 36.7804 10.1522L36.774 10.1438C36.7444 10.106 36.7136 10.0695 36.6788 10.0355L26.7451 0.314712C26.7104 0.280723 26.6731 0.250511 26.6345 0.221557L26.6246 0.21433C26.618 0.209481 26.6114 0.204633 26.6049 0.200157C26.5659 0.172882 26.5264 0.147705 26.4848 0.126304C26.4835 0.125549 26.4821 0.124964 26.4808 0.124395C26.4792 0.123701 26.4776 0.123031 26.4762 0.122108C26.4368 0.101967 26.3956 0.0847624 26.354 0.0692366C26.3424 0.0650405 26.3313 0.0612639 26.3193 0.0574874C26.2747 0.0428009 26.2297 0.0297928 26.1829 0.0205612H26.1821C26.1362 0.0117492 26.0894 0.00671386 26.0423 0.00335693L26.0243 0.0025177L26.0063 0.00167846L25.9913 0.000906343L25.9913 0.000906021C25.9839 0.000452953 25.9764 0 25.969 0H1.09774C0.491412 0 0 0.48088 0 1.07422V47.0532C0 47.6466 0.491412 48.1274 1.09774 48.1274H17.6248V53.9257C17.6248 54.3164 17.8418 54.6764 18.1913 54.8656C18.5412 55.0549 18.9678 55.0436 19.3062 54.8358L23.487 52.2691L27.6679 54.8358C27.8458 54.9449 28.0487 54.9999 28.2515 54.9999C28.4342 54.9999 28.6173 54.9554 28.7828 54.8661C29.1323 54.6768 29.3492 54.3168 29.3492 53.9257V48.1274H35.9023C36.5086 48.1274 37 47.6466 37 47.0532V10.795C37 10.7878 36.9995 10.7805 36.9991 10.7732L36.9983 10.7585ZM27.0667 3.66786L33.2522 9.72083H27.0667V3.66786ZM16.8774 32.5018C16.8804 32.639 17.006 32.9743 17.0832 33.1795L17.0843 33.1824C17.247 33.6168 17.4314 34.1093 17.4314 34.6553C17.4314 35.202 17.2466 35.6955 17.0832 36.1306L17.0829 36.1314C17.0061 36.3367 16.8808 36.6717 16.8778 36.8083C16.9636 36.9124 17.2612 37.0966 17.443 37.209C17.8345 37.4507 18.2779 37.7252 18.5991 38.154C18.9237 38.5875 19.0562 39.0881 19.1724 39.5295L19.1727 39.5309C19.2238 39.724 19.3059 40.0346 19.3761 40.1522C19.4151 40.1602 19.4957 40.1715 19.6479 40.1715C19.7706 40.1715 19.9073 40.1648 20.0518 40.1577L20.0604 40.1573C20.2241 40.1494 20.3933 40.1413 20.569 40.1413C20.9643 40.1413 21.2834 40.185 21.5728 40.2794C22.076 40.4431 22.4789 40.7597 22.8349 41.0395L22.84 41.0435C23.0342 41.1971 23.3579 41.4518 23.487 41.4744C23.6161 41.4518 23.9403 41.1971 24.1345 41.0435L24.1363 41.0421L24.1364 41.042C24.4927 40.7617 24.8969 40.4436 25.4016 40.2794C25.6911 40.185 26.0097 40.1413 26.4055 40.1413C26.5816 40.1413 26.7511 40.1495 26.9148 40.1573L26.9222 40.1577C27.0671 40.1648 27.2039 40.1715 27.3266 40.1715C27.4788 40.1715 27.5594 40.1602 27.5984 40.1522C27.6683 40.0343 27.7511 39.7221 27.8017 39.5295C27.9183 39.0881 28.0508 38.5875 28.3754 38.154C28.6966 37.7252 29.14 37.4507 29.5315 37.209L29.5414 37.2028C29.724 37.0895 30.0124 36.9105 30.0966 36.8083C30.0936 36.6711 29.968 36.3358 29.8908 36.1306L29.8903 36.1293C29.7275 35.6941 29.5431 35.201 29.5431 34.6548C29.5431 34.1081 29.7279 33.6146 29.8912 33.1795L29.8923 33.1766C29.9692 32.9712 30.0937 32.6384 30.0966 32.5018C30.0124 32.3996 29.724 32.2205 29.5414 32.1072L29.5315 32.101L29.5305 32.1004C29.1392 31.8585 28.6963 31.5846 28.3754 31.1561C28.0508 30.7226 27.9183 30.222 27.8017 29.7806C27.7511 29.5875 27.6687 29.2758 27.5984 29.1579C27.5594 29.1495 27.4788 29.1386 27.3266 29.1386C27.2039 29.1386 27.0671 29.1453 26.9222 29.1524L26.9148 29.1528L26.9147 29.1528C26.7511 29.1606 26.5816 29.1688 26.4055 29.1688C26.0097 29.1688 25.6911 29.1251 25.4016 29.0307C24.8961 28.8662 24.4913 28.5477 24.1345 28.2666L24.1302 28.2632C23.9325 28.1076 23.6066 27.8511 23.4819 27.8352C23.3674 27.8511 23.0392 28.1094 22.8417 28.2649L22.8417 28.2649L22.8417 28.2649L22.8395 28.2666C22.4828 28.5477 22.0784 28.8662 21.5728 29.0307C21.2834 29.1251 20.9643 29.1688 20.569 29.1688C20.3932 29.1688 20.2249 29.1607 20.0615 29.1529L20.0518 29.1524C19.9069 29.1453 19.7701 29.1386 19.6479 29.1386C19.4957 29.1386 19.4146 29.1499 19.3761 29.1579C19.3059 29.2755 19.2238 29.5861 19.1727 29.7792L19.1724 29.7806L19.172 29.7818C19.0555 30.2229 18.9234 30.723 18.5991 31.1561C18.2774 31.5849 17.8341 31.8594 17.443 32.101C17.2607 32.2135 16.9632 32.3977 16.8774 32.5018ZM27.1537 51.9837L27.1533 51.9835V42.3166C27.0371 42.3137 26.9226 42.309 26.8116 42.3036C26.6662 42.2965 26.529 42.2897 26.405 42.2897C26.2104 42.2897 26.1272 42.3074 26.0946 42.3179C25.9647 42.3601 25.7146 42.557 25.513 42.7158L25.5129 42.7158L25.511 42.7173C24.9986 43.121 24.3609 43.6233 23.487 43.6233C22.6131 43.6233 21.9755 43.121 21.4631 42.7173L21.4611 42.7158L21.4611 42.7158C21.2595 42.557 21.0094 42.3601 20.879 42.3174C20.8469 42.3069 20.7637 42.2893 20.569 42.2893C20.4451 42.2893 20.3078 42.296 20.1625 42.3036C20.0514 42.309 19.9369 42.3132 19.8203 42.3166V51.9837L22.9034 50.0908C23.2602 49.8722 23.7139 49.8722 24.0706 50.0908L27.1533 51.9835V51.9837H27.1537ZM29.3492 41.4509V45.979H34.8045V11.8693H25.969C25.3626 11.8693 24.8712 11.3884 24.8712 10.795V2.14843H2.19549V45.979H17.6252V41.4509C17.2989 41.0175 17.1621 40.5034 17.0468 40.067C16.9863 39.8379 16.9036 39.5245 16.8285 39.4242C16.753 39.3239 16.4743 39.151 16.2702 39.0251L16.2698 39.0249C15.73 38.6909 15.0579 38.2751 14.7904 37.4893C14.5263 36.7132 14.801 35.9802 15.0219 35.3911L15.0219 35.3908C15.1223 35.1235 15.2359 34.8202 15.2359 34.6548C15.2359 34.4895 15.1223 34.1865 15.0219 33.9192L15.0219 33.919C14.801 33.3299 14.5263 32.5969 14.7904 31.8207C15.058 31.0348 15.7299 30.619 16.2702 30.2849C16.4739 30.1591 16.753 29.9862 16.8285 29.8859C16.9036 29.7856 16.9863 29.4722 17.0468 29.243C17.2046 28.6451 17.4014 27.9007 18.0742 27.4181C18.6089 27.0346 19.2285 26.9901 19.6479 26.9901C19.8228 26.9901 19.9911 26.9982 20.154 27.0061L20.1625 27.0065C20.3078 27.014 20.4455 27.0208 20.569 27.0208C20.7637 27.0208 20.8473 27.0031 20.8794 26.9926C21.0085 26.9507 21.2561 26.7557 21.457 26.5975L21.4631 26.5927L21.4634 26.5925C21.9758 26.1893 22.6137 25.6872 23.487 25.6872C24.3598 25.6872 24.9969 26.1882 25.5094 26.5911L25.5114 26.5927C25.7134 26.7522 25.9647 26.9503 26.095 26.9926C26.1272 27.0031 26.2104 27.0208 26.4055 27.0208C26.529 27.0208 26.6662 27.014 26.8116 27.0069C26.9771 26.9985 27.1486 26.9901 27.3261 26.9901C27.7459 26.9901 28.3656 27.0346 28.9007 27.4181C29.573 27.9006 29.7694 28.6449 29.9272 29.2429L29.9273 29.243C29.9877 29.4722 30.0705 29.7856 30.146 29.8863C30.221 29.9862 30.5002 30.1591 30.7038 30.2849C31.2441 30.619 31.9165 31.0348 32.1836 31.8207C32.4478 32.5966 32.1729 33.3301 31.9521 33.9192C31.8517 34.1865 31.7381 34.4895 31.7381 34.6548C31.7381 34.8202 31.8517 35.1235 31.9521 35.3908L31.9522 35.3911C32.173 35.9802 32.4478 36.7132 32.1836 37.4889C31.9165 38.2753 31.2441 38.6911 30.7038 39.0251L30.7031 39.0256C30.4995 39.1514 30.2209 39.3236 30.146 39.4242C30.0705 39.5245 29.9877 39.8379 29.9273 40.067C29.8119 40.5034 29.6756 41.017 29.3492 41.4509Z" fill="#86ADEF"/>
<path id="Path" d="M6.07501 11H19.925C20.5183 11 21 10.5523 21 10C21 9.44766 20.5183 9 19.925 9H6.07501C5.48123 9 5 9.44766 5 10C5 10.5523 5.48165 11 6.07501 11Z" fill="#86ADEF"/>
<path id="Path_2" d="M30.9187 15H7.08133C6.48406 15 6 15.4477 6 16C6 16.5523 6.48406 17 7.08133 17H30.9187C31.5159 17 32 16.5523 32 16C32 15.4477 31.5159 15 30.9187 15Z" fill="#86ADEF"/>
<path id="Path_3" d="M25.9024 20H6.09756C5.49133 20 5 20.448 5 21C5 21.5523 5.49133 22 6.09756 22H25.9024C26.5087 22 27 21.5523 27 21C27 20.448 26.5087 20 25.9024 20Z" fill="#86ADEF"/>
<path id="Path_4" d="M31 20C30.4492 20 30 20.6738 30 21.5C30 22.3262 30.4492 23 31 23C31.5512 23 32 22.3262 32 21.5C32 20.6738 31.5512 20 31 20Z" fill="#86ADEF"/>
</g>
</svg>

<svg width="37" height="55" fill="none" xmlns="http://www.w3.org/2000/svg"><g fill="#86ADEF"><path fill-rule="evenodd" clip-rule="evenodd" d="M36.998 10.758v-.025l-.001-.01a1.067 1.067 0 00-.018-.137 1.102 1.102 0 00-.038-.135l-.012-.032a1.13 1.13 0 00-.054-.122l-.002-.004-.002-.002a1.056 1.056 0 00-.076-.119l-.015-.02-.006-.008a1.082 1.082 0 00-.095-.108L26.745.315a1.097 1.097 0 00-.11-.093l-.01-.008a1.042 1.042 0 00-.14-.088L26.48.124l-.005-.002a1.158 1.158 0 00-.293-.101 1.19 1.19 0 00-.14-.018h-.019l-.018-.001L25.991 0H1.098C.49 0 0 .48 0 1.074v45.98c0 .593.491 1.073 1.098 1.073h16.527v5.799c0 .39.217.75.566.94.35.189.777.178 1.115-.03l4.181-2.567 4.18 2.567a1.117 1.117 0 001.116.03c.35-.19.566-.55.566-.94v-5.799h6.553c.607 0 1.098-.48 1.098-1.074v-36.28l-.002-.014zm-9.931-7.09l6.185 6.053h-6.185V3.668zm-10.19 28.834c.003.137.129.472.206.677l.001.003c.163.435.347.927.347 1.473 0 .547-.184 1.04-.348 1.476-.077.206-.202.54-.205.677.086.104.383.289.565.401.391.242.835.516 1.156.945.325.433.457.934.573 1.375v.002c.052.193.134.504.204.621.04.008.12.02.272.02.123 0 .26-.007.404-.014h.008a9.2 9.2 0 01.509-.017c.395 0 .714.044 1.004.138.503.164.906.48 1.262.76l.005.005c.194.153.518.408.647.43.13-.022.453-.277.648-.43l.001-.002c.357-.28.76-.598 1.266-.763.29-.094.608-.138 1.003-.138.177 0 .346.009.51.016h.007c.145.008.282.015.405.015.152 0 .232-.012.271-.02.07-.118.153-.43.204-.623.116-.44.249-.942.573-1.375.322-.429.765-.703 1.157-.945l.01-.006c.182-.114.47-.293.555-.395-.003-.137-.129-.472-.206-.677v-.002c-.163-.435-.348-.928-.348-1.474 0-.547.185-1.04.348-1.476l.001-.002c.077-.206.202-.539.205-.675-.085-.102-.373-.282-.556-.395l-.01-.006c-.392-.242-.835-.516-1.156-.945-.324-.433-.457-.934-.573-1.375-.05-.194-.133-.505-.204-.623a1.369 1.369 0 00-.271-.02c-.123 0-.26.007-.405.014h-.007a9.205 9.205 0 01-.51.017c-.395 0-.714-.044-1.003-.138-.506-.165-.91-.483-1.268-.764l-.004-.004c-.197-.155-.523-.412-.648-.428-.115.016-.443.274-.64.43l-.002.002c-.357.28-.762.6-1.267.764-.29.094-.609.138-1.004.138-.176 0-.344-.008-.508-.016h-.01a8.599 8.599 0 00-.403-.014c-.152 0-.233.01-.272.019-.07.117-.152.428-.203.621v.002h-.001c-.117.442-.249.942-.573 1.375-.322.429-.765.703-1.156.945-.182.113-.48.297-.566.4zm10.277 19.482v-9.667a17.534 17.534 0 01-.342-.013 7.625 7.625 0 00-.407-.014c-.195 0-.278.017-.31.028-.13.042-.38.239-.582.398l-.002.001c-.512.404-1.15.906-2.024.906-.874 0-1.511-.502-2.024-.906l-.002-.001c-.201-.159-.452-.356-.582-.399a1.098 1.098 0 00-.31-.028c-.124 0-.261.007-.406.015-.112.005-.226.01-.343.013v9.667l3.083-1.893a1.12 1.12 0 011.168 0l3.082 1.892zm2.195-10.533v4.528h5.455v-34.11H25.97c-.606 0-1.098-.48-1.098-1.074V2.148H2.195V45.98h15.43v-4.528c-.326-.434-.463-.948-.578-1.384-.06-.23-.143-.542-.219-.643-.075-.1-.354-.273-.558-.399-.54-.334-1.212-.75-1.48-1.536-.264-.776.011-1.509.232-2.098.1-.267.214-.57.214-.736 0-.166-.114-.468-.214-.736-.221-.59-.496-1.322-.232-2.098.268-.786.94-1.202 1.48-1.536.204-.126.483-.299.558-.4.076-.1.158-.413.219-.642.158-.598.354-1.342 1.027-1.825.535-.383 1.154-.428 1.574-.428.175 0 .343.008.506.016h.009c.145.008.282.015.406.015a1.1 1.1 0 00.31-.028c.13-.042.377-.237.578-.395l.006-.005c.513-.404 1.15-.906 2.024-.906.873 0 1.51.501 2.022.904l.002.002c.202.16.454.357.584.4.032.01.115.028.31.028.124 0 .261-.007.407-.014.165-.009.337-.017.514-.017.42 0 1.04.045 1.575.428.672.483.868 1.227 1.026 1.825.06.23.143.543.219.643.075.1.354.273.558.399.54.334 1.212.75 1.48 1.536.264.776-.011 1.51-.232 2.098-.1.268-.214.57-.214.736 0 .165.114.468.214.736.221.59.496 1.322.232 2.098-.267.786-.94 1.202-1.48 1.536-.204.126-.483.299-.558.4-.076.1-.158.413-.219.642-.115.436-.251.95-.578 1.384z"/><path d="M6.075 11h13.85c.593 0 1.075-.448 1.075-1s-.482-1-1.075-1H6.075C5.481 9 5 9.448 5 10s.482 1 1.075 1zm24.844 4H7.08C6.484 15 6 15.448 6 16s.484 1 1.081 1H30.92c.597 0 1.081-.448 1.081-1s-.484-1-1.081-1zm-5.017 5H6.098C5.49 20 5 20.448 5 21s.491 1 1.098 1h19.804C26.51 22 27 21.552 27 21s-.491-1-1.098-1zM31 20c-.55 0-1 .674-1 1.5s.45 1.5 1 1.5c.551 0 1-.674 1-1.5s-.449-1.5-1-1.5z"/></g></svg>
